X:171
T:Merry Girl of Bristol THO4.171, The
M:2/4
L:1/8
Z:vmp. Peter Dunk 2010/11.from a transcription by Fynn Titford-Mock 2007
B:Thompson's Compleat Collection of 200 Favourite Country Dances Volume IV.
Q:1/4=150
K:G
GBdB|efge|dBAG|AFED|GBdB|efge|dcBA|G2-G2:|
|:dfaf|bgfe|fgaf|e^cBA|dfaf|gabg|faA^c|d2D2:|
|:GBdB|efge|dbca|BgAf|GBdB|efge|dcBA|G2[G2G,2]:|
